bernoullicharts/arcsin_x_sqrt_1-x_x_-1_mean.svg

<?xml version="1.0" encoding="utf-8" standalone="no"?>
<!DOCTYPE svg PUBLIC "-//W3C//DTD SVG 1.1//EN"
  "http://www.w3.org/Graphics/SVG/1.1/DTD/svg11.dtd">
<!-- Created with matplotlib (https://matplotlib.org/) -->
<svg height="345.6pt" version="1.1" viewBox="0 0 460.8 345.6" width="460.8pt" xmlns="http://www.w3.org/2000/svg" xmlns:xlink="http://www.w3.org/1999/xlink">
 <defs>
  <style type="text/css">
*{stroke-linecap:butt;stroke-linejoin:round;}
  </style>
 </defs>
 <g id="figure_1">
  <g id="patch_1">
   <path d="M 0 345.6 
L 460.8 345.6 
L 460.8 0 
L 0 0 
z
" style="fill:#ffffff;"/>
  </g>
  <g id="axes_1">
   <g id="patch_2">
    <path d="M 57.6 307.584 
L 414.72 307.584 
L 414.72 41.472 
L 57.6 41.472 
z
" style="fill:#ffffff;"/>
   </g>
   <g id="matplotlib.axis_1">
    <g id="xtick_1">
     <g id="line2d_1">
      <defs>
       <path d="M 0 0 
L 0 3.5 
" id="mc1c0d3cbee" style="stroke:#000000;stroke-width:0.8;"/>
      </defs>
      <g>
       <use style="stroke:#000000;stroke-width:0.8;" x="73.800255" xlink:href="#mc1c0d3cbee" y="307.584"/>
      </g>
     </g>
     <g id="text_1">
      <text style="font-family:DejaVu Sans;font-size:10px;font-style:normal;font-weight:normal;text-anchor:middle;" transform="rotate(-0, 73.800255, 322.182437)" x="73.800255" y="322.182437">0.0</text>
     </g>
    </g>
    <g id="xtick_2">
     <g id="line2d_2">
      <g>
       <use style="stroke:#000000;stroke-width:0.8;" x="138.744153" xlink:href="#mc1c0d3cbee" y="307.584"/>
      </g>
     </g>
     <g id="text_2">
      <text style="font-family:DejaVu Sans;font-size:10px;font-style:normal;font-weight:normal;text-anchor:middle;" transform="rotate(-0, 138.744153, 322.182437)" x="138.744153" y="322.182437">0.2</text>
     </g>
    </g>
    <g id="xtick_3">
     <g id="line2d_3">
      <g>
       <use style="stroke:#000000;stroke-width:0.8;" x="203.688051" xlink:href="#mc1c0d3cbee" y="307.584"/>
      </g>
     </g>
     <g id="text_3">
      <text style="font-family:DejaVu Sans;font-size:10px;font-style:normal;font-weight:normal;text-anchor:middle;" transform="rotate(-0, 203.688051, 322.182437)" x="203.688051" y="322.182437">0.4</text>
     </g>
    </g>
    <g id="xtick_4">
     <g id="line2d_4">
      <g>
       <use style="stroke:#000000;stroke-width:0.8;" x="268.631949" xlink:href="#mc1c0d3cbee" y="307.584"/>
      </g>
     </g>
     <g id="text_4">
      <text style="font-family:DejaVu Sans;font-size:10px;font-style:normal;font-weight:normal;text-anchor:middle;" transform="rotate(-0, 268.631949, 322.182437)" x="268.631949" y="322.182437">0.6</text>
     </g>
    </g>
    <g id="xtick_5">
     <g id="line2d_5">
      <g>
       <use style="stroke:#000000;stroke-width:0.8;" x="333.575847" xlink:href="#mc1c0d3cbee" y="307.584"/>
      </g>
     </g>
     <g id="text_5">
      <text style="font-family:DejaVu Sans;font-size:10px;font-style:normal;font-weight:normal;text-anchor:middle;" transform="rotate(-0, 333.575847, 322.182437)" x="333.575847" y="322.182437">0.8</text>
     </g>
    </g>
    <g id="xtick_6">
     <g id="line2d_6">
      <g>
       <use style="stroke:#000000;stroke-width:0.8;" x="398.519745" xlink:href="#mc1c0d3cbee" y="307.584"/>
      </g>
     </g>
     <g id="text_6">
      <text style="font-family:DejaVu Sans;font-size:10px;font-style:normal;font-weight:normal;text-anchor:middle;" transform="rotate(-0, 398.519745, 322.182437)" x="398.519745" y="322.182437">1.0</text>
     </g>
    </g>
    <g id="text_7">
     <text style="font-family:DejaVu Sans;font-size:10px;font-style:normal;font-weight:normal;text-anchor:middle;" transform="rotate(-0, 236.16, 335.860562)" x="236.16" y="335.860562">Input Coin's Heads Probability (λ)</text>
    </g>
   </g>
   <g id="matplotlib.axis_2">
    <g id="ytick_1">
     <g id="line2d_7">
      <defs>
       <path d="M 0 0 
L -3.5 0 
" id="ma84a2f8b7c" style="stroke:#000000;stroke-width:0.8;"/>
      </defs>
      <g>
       <use style="stroke:#000000;stroke-width:0.8;" x="57.6" xlink:href="#ma84a2f8b7c" y="295.488"/>
      </g>
     </g>
     <g id="text_8">
      <text style="font-family:DejaVu Sans;font-size:10px;font-style:normal;font-weight:normal;text-anchor:end;" transform="rotate(-0, 50.6, 299.287219)" x="50.6" y="299.287219">0.0</text>
     </g>
    </g>
    <g id="ytick_2">
     <g id="line2d_8">
      <g>
       <use style="stroke:#000000;stroke-width:0.8;" x="57.6" xlink:href="#ma84a2f8b7c" y="254.897396"/>
      </g>
     </g>
     <g id="text_9">
      <text style="font-family:DejaVu Sans;font-size:10px;font-style:normal;font-weight:normal;text-anchor:end;" transform="rotate(-0, 50.6, 258.696615)" x="50.6" y="258.696615">0.1</text>
     </g>
    </g>
    <g id="ytick_3">
     <g id="line2d_9">
      <g>
       <use style="stroke:#000000;stroke-width:0.8;" x="57.6" xlink:href="#ma84a2f8b7c" y="214.306792"/>
      </g>
     </g>
     <g id="text_10">
      <text style="font-family:DejaVu Sans;font-size:10px;font-style:normal;font-weight:normal;text-anchor:end;" transform="rotate(-0, 50.6, 218.106011)" x="50.6" y="218.106011">0.2</text>
     </g>
    </g>
    <g id="ytick_4">
     <g id="line2d_10">
      <g>
       <use style="stroke:#000000;stroke-width:0.8;" x="57.6" xlink:href="#ma84a2f8b7c" y="173.716188"/>
      </g>
     </g>
     <g id="text_11">
      <text style="font-family:DejaVu Sans;font-size:10px;font-style:normal;font-weight:normal;text-anchor:end;" transform="rotate(-0, 50.6, 177.515407)" x="50.6" y="177.515407">0.3</text>
     </g>
    </g>
    <g id="ytick_5">
     <g id="line2d_11">
      <g>
       <use style="stroke:#000000;stroke-width:0.8;" x="57.6" xlink:href="#ma84a2f8b7c" y="133.125584"/>
      </g>
     </g>
     <g id="text_12">
      <text style="font-family:DejaVu Sans;font-size:10px;font-style:normal;font-weight:normal;text-anchor:end;" transform="rotate(-0, 50.6, 136.924803)" x="50.6" y="136.924803">0.4</text>
     </g>
    </g>
    <g id="ytick_6">
     <g id="line2d_12">
      <g>
       <use style="stroke:#000000;stroke-width:0.8;" x="57.6" xlink:href="#ma84a2f8b7c" y="92.53498"/>
      </g>
     </g>
     <g id="text_13">
      <text style="font-family:DejaVu Sans;font-size:10px;font-style:normal;font-weight:normal;text-anchor:end;" transform="rotate(-0, 50.6, 96.334199)" x="50.6" y="96.334199">0.5</text>
     </g>
    </g>
    <g id="ytick_7">
     <g id="line2d_13">
      <g>
       <use style="stroke:#000000;stroke-width:0.8;" x="57.6" xlink:href="#ma84a2f8b7c" y="51.944376"/>
      </g>
     </g>
     <g id="text_14">
      <text style="font-family:DejaVu Sans;font-size:10px;font-style:normal;font-weight:normal;text-anchor:end;" transform="rotate(-0, 50.6, 55.743595)" x="50.6" y="55.743595">0.6</text>
     </g>
    </g>
    <g id="text_15">
     <text style="font-family:DejaVu Sans;font-size:10px;font-style:normal;font-weight:normal;text-anchor:middle;" transform="rotate(-90, 28.617187, 174.528)" x="28.617187" y="174.528">Simulated Mean / Function Value</text>
    </g>
   </g>
   <g id="line2d_14">
    <path clip-path="url(#pa5c18e5d45)" d="M 73.832727 295.447411 
L 77.112066 291.369208 
L 80.391405 287.331988 
L 83.670744 283.335353 
L 86.950083 279.378913 
L 90.229421 275.462294 
L 93.50876 271.585132 
L 96.788099 267.747071 
L 100.067438 263.94777 
L 103.346777 260.186896 
L 106.626116 256.464126 
L 109.905455 252.779148 
L 113.184793 249.131659 
L 116.464132 245.521365 
L 119.743471 241.947983 
L 123.02281 238.411237 
L 126.302149 234.910861 
L 129.581488 231.446597 
L 132.860826 228.018197 
L 136.140165 224.625418 
L 139.419504 221.268029 
L 142.698843 217.945805 
L 145.978182 214.658529 
L 149.257521 211.405993 
L 152.53686 208.187994 
L 155.816198 205.004341 
L 159.095537 201.854846 
L 162.374876 198.739331 
L 165.654215 195.657624 
L 168.933554 192.609563 
L 172.212893 189.594989 
L 175.492231 186.613753 
L 178.77157 183.665713 
L 182.050909 180.750734 
L 185.330248 177.868687 
L 188.609587 175.019451 
L 191.888926 172.202912 
L 195.168264 169.418963 
L 198.447603 166.667504 
L 201.726942 163.948443 
L 205.006281 161.261694 
L 208.28562 158.607178 
L 211.564959 155.984825 
L 214.844298 153.394572 
L 218.123636 150.836361 
L 221.402975 148.310144 
L 224.682314 145.815882 
L 227.961653 143.353539 
L 231.240992 140.923093 
L 234.520331 138.524525 
L 237.799669 136.157827 
L 241.079008 133.822999 
L 244.358347 131.52005 
L 247.637686 129.248998 
L 250.917025 127.009871 
L 254.196364 124.802704 
L 257.475702 122.627545 
L 260.755041 120.48445 
L 264.03438 118.373489 
L 267.313719 116.29474 
L 270.593058 114.248295 
L 273.872397 112.234256 
L 277.151736 110.25274 
L 280.431074 108.303878 
L 283.710413 106.387812 
L 286.989752 104.504704 
L 290.269091 102.654728 
L 293.54843 100.838079 
L 296.827769 99.054966 
L 300.107107 97.305622 
L 303.386446 95.590297 
L 306.665785 93.909268 
L 309.945124 92.262834 
L 313.224463 90.651321 
L 316.503802 89.075084 
L 319.78314 87.534511 
L 323.062479 86.030023 
L 326.341818 84.562082 
L 329.621157 83.13119 
L 332.900496 81.737899 
L 336.179835 80.382813 
L 339.459174 79.066596 
L 342.738512 77.789983 
L 346.017851 76.553783 
L 349.29719 75.358898 
L 352.576529 74.206335 
L 355.855868 73.097222 
L 359.135207 72.032836 
L 362.414545 71.01463 
L 365.693884 70.044273 
L 368.973223 69.123703 
L 372.252562 68.255201 
L 375.531901 67.441499 
L 378.81124 66.685931 
L 382.090579 65.992687 
L 385.369917 65.367225 
L 388.649256 64.817047 
L 391.928595 64.353365 
L 395.207934 63.995711 
L 398.487273 63.798515 
" style="fill:none;stroke:#1f77b4;stroke-linecap:square;stroke-width:1.5;"/>
   </g>
   <g id="line2d_15">
    <path clip-path="url(#pa5c18e5d45)" d="M 73.832727 295.488 
L 77.112066 290.617128 
L 80.391405 287.369879 
L 83.670744 283.310819 
L 86.950083 277.628134 
L 90.229421 271.94545 
L 93.50876 276.00451 
L 96.788099 269.510013 
L 100.067438 264.639141 
L 103.346777 267.886389 
L 106.626116 250.838336 
L 109.905455 255.709208 
L 113.184793 253.273772 
L 116.464132 252.46196 
L 119.743471 246.779275 
L 123.02281 243.532027 
L 126.302149 232.97847 
L 129.581488 236.225718 
L 132.860826 229.731221 
L 136.140165 232.166658 
L 139.419504 235.413906 
L 142.698843 228.107597 
L 145.978182 218.365852 
L 149.257521 221.613101 
L 152.53686 219.989477 
L 155.816198 207.812295 
L 159.095537 199.694174 
L 162.374876 194.823302 
L 165.654215 192.387866 
L 168.933554 193.199678 
L 172.212893 194.01149 
L 175.492231 187.516993 
L 178.77157 187.516993 
L 182.050909 187.516993 
L 185.330248 175.339812 
L 188.609587 162.350819 
L 191.888926 171.280752 
L 195.168264 163.162631 
L 198.447603 173.716188 
L 201.726942 155.04451 
L 205.006281 155.856322 
L 208.28562 164.786255 
L 211.564959 161.539007 
L 214.844298 155.04451 
L 218.123636 148.550013 
L 221.402975 145.302765 
L 224.682314 148.550013 
L 227.961653 149.361826 
L 231.240992 148.550013 
L 234.520331 129.878336 
L 237.799669 143.679141 
L 241.079008 137.184644 
L 244.358347 142.055517 
L 247.637686 112.830282 
L 250.917025 135.56102 
L 254.196364 141.243705 
L 257.475702 130.690148 
L 260.755041 125.007463 
L 264.03438 121.760215 
L 267.313719 139.620081 
L 270.593058 122.572027 
L 273.872397 112.01847 
L 277.151736 125.007463 
L 280.431074 111.206658 
L 283.710413 87.664107 
L 286.989752 106.335785 
L 290.269091 96.59404 
L 293.54843 101.464913 
L 296.827769 103.088537 
L 300.107107 88.475919 
L 303.386446 86.852295 
L 306.665785 102.276725 
L 309.945124 83.605047 
L 313.224463 85.228671 
L 316.503802 79.545987 
L 319.78314 89.287732 
L 323.062479 83.605047 
L 326.341818 94.158604 
L 329.621157 83.605047 
L 332.900496 80.357799 
L 336.179835 86.040483 
L 339.459174 86.040483 
L 342.738512 73.05149 
L 346.017851 63.309745 
L 349.29719 69.804242 
L 352.576529 67.368805 
L 355.855868 72.239678 
L 359.135207 80.357799 
L 362.414545 59.250685 
L 365.693884 61.686121 
L 368.973223 81.981423 
L 372.252562 69.804242 
L 375.531901 72.239678 
L 378.81124 72.239678 
L 382.090579 63.309745 
L 385.369917 53.568 
L 388.649256 64.121557 
L 391.928595 70.616054 
L 395.207934 61.686121 
L 398.487273 56.003436 
" style="fill:none;stroke:#ff7f0e;stroke-linecap:square;stroke-width:1.5;"/>
   </g>
   <g id="patch_3">
    <path d="M 57.6 307.584 
L 57.6 41.472 
" style="fill:none;stroke:#000000;stroke-linecap:square;stroke-linejoin:miter;stroke-width:0.8;"/>
   </g>
   <g id="patch_4">
    <path d="M 414.72 307.584 
L 414.72 41.472 
" style="fill:none;stroke:#000000;stroke-linecap:square;stroke-linejoin:miter;stroke-width:0.8;"/>
   </g>
   <g id="patch_5">
    <path d="M 57.6 307.584 
L 414.72 307.584 
" style="fill:none;stroke:#000000;stroke-linecap:square;stroke-linejoin:miter;stroke-width:0.8;"/>
   </g>
   <g id="patch_6">
    <path d="M 57.6 41.472 
L 414.72 41.472 
" style="fill:none;stroke:#000000;stroke-linecap:square;stroke-linejoin:miter;stroke-width:0.8;"/>
   </g>
   <g id="text_16">
    <text style="font-family:DejaVu Sans;font-size:12px;font-style:normal;font-weight:normal;" transform="translate(74.565 22.034625)">Simulated Mean for arcsin(x)+sqrt(1-x*x)-1 Algorithm</text>
    <text style="font-family:DejaVu Sans;font-size:12px;font-style:normal;font-weight:normal;" transform="translate(132.609375 35.472)">(Wasserstein Distances in Legend)</text>
   </g>
   <g id="legend_1">
    <g id="patch_7">
     <path d="M 64.6 78.82825 
L 242.85 78.82825 
Q 244.85 78.82825 244.85 76.82825 
L 244.85 48.472 
Q 244.85 46.472 242.85 46.472 
L 64.6 46.472 
Q 62.6 46.472 62.6 48.472 
L 62.6 76.82825 
Q 62.6 78.82825 64.6 78.82825 
z
" style="fill:#ffffff;opacity:0.8;stroke:#cccccc;stroke-linejoin:miter;"/>
    </g>
    <g id="line2d_16">
     <path d="M 66.6 54.570437 
L 86.6 54.570437 
" style="fill:none;stroke:#1f77b4;stroke-linecap:square;stroke-width:1.5;"/>
    </g>
    <g id="line2d_17"/>
    <g id="text_17">
     <text style="font-family:DejaVu Sans;font-size:10px;font-style:normal;font-weight:normal;text-anchor:start;" transform="rotate(-0, 94.6, 58.070437)" x="94.6" y="58.070437">arcsin(x)+sqrt(1-x*x)-1</text>
    </g>
    <g id="line2d_18">
     <path d="M 66.6 69.248562 
L 86.6 69.248562 
" style="fill:none;stroke:#ff7f0e;stroke-linecap:square;stroke-width:1.5;"/>
    </g>
    <g id="line2d_19"/>
    <g id="text_18">
     <text style="font-family:DejaVu Sans;font-size:10px;font-style:normal;font-weight:normal;text-anchor:start;" transform="rotate(-0, 94.6, 72.748562)" x="94.6" y="72.748562">Simul. Mean (WD=0.008228)</text>
    </g>
   </g>
  </g>
 </g>
 <defs>
  <clipPath id="pa5c18e5d45">
   <rect height="266.112" width="357.12" x="57.6" y="41.472"/>
  </clipPath>
 </defs>
</svg>

<svg height="460.8" viewBox="0 0 460.8 345.6" width="614.4" xmlns="http://www.w3.org/2000/svg" xmlns:xlink="http://www.w3.org/1999/xlink"><defs><style>*{stroke-linecap:butt;stroke-linejoin:round}</style></defs><g id="figure_1"><path d="M0 345.6h460.8V0H0z" fill="#fff" id="patch_1"/><g id="axes_1"><path d="M57.6 307.584h357.12V41.472H57.6z" fill="#fff" id="patch_2"/><g id="matplotlib.axis_1"><g id="xtick_1"><g id="line2d_1"><defs><path d="M0 0v3.5" id="mc1c0d3cbee" stroke="#000" stroke-width=".8"/></defs><use x="73.8" xlink:href="#mc1c0d3cbee" y="307.584" stroke="#000" stroke-width=".8"/></g><text x="73.8" y="322.182" font-family="DejaVu Sans" font-size="10" font-weight="400" text-anchor="middle" id="text_1">0.0</text></g><g id="xtick_2"><use x="138.744" xlink:href="#mc1c0d3cbee" y="307.584" stroke="#000" stroke-width=".8" id="line2d_2"/><text x="138.744" y="322.182" font-family="DejaVu Sans" font-size="10" font-weight="400" text-anchor="middle" id="text_2">0.2</text></g><g id="xtick_3"><use x="203.688" xlink:href="#mc1c0d3cbee" y="307.584" stroke="#000" stroke-width=".8" id="line2d_3"/><text x="203.688" y="322.182" font-family="DejaVu Sans" font-size="10" font-weight="400" text-anchor="middle" id="text_3">0.4</text></g><g id="xtick_4"><use x="268.632" xlink:href="#mc1c0d3cbee" y="307.584" stroke="#000" stroke-width=".8" id="line2d_4"/><text x="268.632" y="322.182" font-family="DejaVu Sans" font-size="10" font-weight="400" text-anchor="middle" id="text_4">0.6</text></g><g id="xtick_5"><use x="333.576" xlink:href="#mc1c0d3cbee" y="307.584" stroke="#000" stroke-width=".8" id="line2d_5"/><text x="333.576" y="322.182" font-family="DejaVu Sans" font-size="10" font-weight="400" text-anchor="middle" id="text_5">0.8</text></g><g id="xtick_6"><use x="398.52" xlink:href="#mc1c0d3cbee" y="307.584" stroke="#000" stroke-width=".8" id="line2d_6"/><text x="398.52" y="322.182" font-family="DejaVu Sans" font-size="10" font-weight="400" text-anchor="middle" id="text_6">1.0</text></g><text x="236.16" y="335.861" font-family="DejaVu Sans" font-size="10" font-weight="400" text-anchor="middle" id="text_7">Input Coin&apos;s Heads Probability (λ)</text></g><g id="matplotlib.axis_2"><g id="ytick_1"><g id="line2d_7"><defs><path d="M0 0h-3.5" id="ma84a2f8b7c" stroke="#000" stroke-width=".8"/></defs><use x="57.6" xlink:href="#ma84a2f8b7c" y="295.488" stroke="#000" stroke-width=".8"/></g><text x="50.6" y="299.287" font-family="DejaVu Sans" font-size="10" font-weight="400" text-anchor="end" id="text_8">0.0</text></g><g id="ytick_2"><use x="57.6" xlink:href="#ma84a2f8b7c" y="254.897" stroke="#000" stroke-width=".8" id="line2d_8"/><text x="50.6" y="258.697" font-family="DejaVu Sans" font-size="10" font-weight="400" text-anchor="end" id="text_9">0.1</text></g><g id="ytick_3"><use x="57.6" xlink:href="#ma84a2f8b7c" y="214.307" stroke="#000" stroke-width=".8" id="line2d_9"/><text x="50.6" y="218.106" font-family="DejaVu Sans" font-size="10" font-weight="400" text-anchor="end" id="text_10">0.2</text></g><g id="ytick_4"><use x="57.6" xlink:href="#ma84a2f8b7c" y="173.716" stroke="#000" stroke-width=".8" id="line2d_10"/><text x="50.6" y="177.515" font-family="DejaVu Sans" font-size="10" font-weight="400" text-anchor="end" id="text_11">0.3</text></g><g id="ytick_5"><use x="57.6" xlink:href="#ma84a2f8b7c" y="133.126" stroke="#000" stroke-width=".8" id="line2d_11"/><text x="50.6" y="136.925" font-family="DejaVu Sans" font-size="10" font-weight="400" text-anchor="end" id="text_12">0.4</text></g><g id="ytick_6"><use x="57.6" xlink:href="#ma84a2f8b7c" y="92.535" stroke="#000" stroke-width=".8" id="line2d_12"/><text x="50.6" y="96.334" font-family="DejaVu Sans" font-size="10" font-weight="400" text-anchor="end" id="text_13">0.5</text></g><g id="ytick_7"><use x="57.6" xlink:href="#ma84a2f8b7c" y="51.944" stroke="#000" stroke-width=".8" id="line2d_13"/><text x="50.6" y="55.744" font-family="DejaVu Sans" font-size="10" font-weight="400" text-anchor="end" id="text_14">0.6</text></g><text transform="rotate(-90 28.617 174.528)" x="28.617" y="174.528" font-family="DejaVu Sans" font-size="10" font-weight="400" text-anchor="middle" id="text_15">Simulated Mean / Function Value</text></g><path clip-path="url(#pa5c18e5d45)" d="M73.833 295.447l3.28-4.078 3.278-4.037 3.28-3.997 3.28-3.956 3.278-3.917 3.28-3.877 3.28-3.838 3.278-3.8 3.28-3.76 3.28-3.723 3.278-3.685 3.28-3.647 3.28-3.61 3.278-3.574 3.28-3.537 3.28-3.5 3.278-3.464 3.28-3.429 3.28-3.393 3.279-3.357 3.279-3.322 3.28-3.287 3.279-3.253 3.279-3.218 3.28-3.184 3.279-3.15 3.279-3.115 3.28-3.081 3.279-3.048 3.279-3.015 3.28-2.981 3.279-2.948 3.279-2.915 3.28-2.882 3.279-2.85 3.279-2.816 3.28-2.784 3.279-2.751 3.279-2.72 3.28-2.686 3.279-2.655 3.279-2.622 3.28-2.59 3.279-2.559 3.279-2.526 3.28-2.494 3.279-2.462 3.279-2.43 3.28-2.4 3.279-2.366 3.279-2.335 3.28-2.303 3.279-2.271 3.279-2.24 3.28-2.206 3.279-2.175 3.279-2.144 3.28-2.11 3.279-2.08 3.28-2.046 3.278-2.014 3.28-1.981 3.28-1.95 3.278-1.915 3.28-1.883 3.28-1.85 3.278-1.817 3.28-1.783 3.28-1.75 3.278-1.715 3.28-1.68 3.28-1.647 3.278-1.612 3.28-1.576 3.28-1.54 3.278-1.505 3.28-1.468 3.28-1.43 3.278-1.394 3.28-1.355 3.28-1.316 3.279-1.277 3.279-1.236 3.28-1.195 3.279-1.153 3.279-1.109 3.28-1.064 3.279-1.018 3.279-.97 3.28-.921 3.279-.869 3.279-.814 3.28-.755 3.279-.693 3.279-.626 3.28-.55 3.279-.464 3.279-.357 3.28-.197" fill="none" stroke="#1f77b4" stroke-linecap="square" stroke-width="1.5" id="line2d_14"/><path clip-path="url(#pa5c18e5d45)" d="M73.833 295.488l3.28-4.87 3.278-3.248 3.28-4.06 3.28-5.682 3.278-5.683 3.28 4.06 3.28-6.495 3.278-4.87 3.28 3.246 3.28-17.048 3.278 4.871 3.28-2.435 3.28-.812 3.278-5.683 3.28-3.247 3.28-10.554 3.278 3.248 3.28-6.495 3.28 2.436 3.279 3.247 3.279-7.306 3.28-9.742 3.279 3.247 3.279-1.624 3.28-12.177 3.279-8.118 3.279-4.87 3.28-2.436 3.279.812 3.279.811 3.28-6.494h6.558l3.28-12.177 3.279-12.99 3.279 8.93 3.28-8.117 3.279 10.553 3.279-18.671 3.28.811 3.279 8.93 3.279-3.247 3.28-6.494 3.279-6.495 3.279-3.247 3.28 3.247 3.279.812 3.279-.812 3.28-18.672 3.279 13.801 3.279-6.494 3.28 4.87 3.279-29.225 3.279 22.731 3.28 5.683 3.279-10.554 3.279-5.683 3.28-3.247 3.279 17.86 3.28-17.048 3.278-10.554 3.28 12.99 3.28-13.801 3.278-23.543 3.28 18.672 3.28-9.742 3.278 4.87 3.28 1.625 3.28-14.613 3.278-1.624 3.28 15.425 3.28-18.672 3.278 1.624 3.28-5.683 3.28 9.742 3.278-5.683 3.28 10.554 3.28-10.554 3.278-3.247 3.28 5.682h3.28l3.279-12.989 3.279-9.741 3.28 6.494 3.279-2.435 3.279 4.87 3.28 8.119 3.279-21.107 3.279 2.435 3.28 20.295 3.279-12.177 3.279 2.436h3.28l3.279-8.93 3.279-9.742 3.28 10.554 3.279 6.494 3.279-8.93 3.28-5.683" fill="none" stroke="#ff7f0e" stroke-linecap="square" stroke-width="1.5" id="line2d_15"/><path d="M57.6 307.584V41.472" fill="none" stroke="#000" stroke-linecap="square" stroke-width=".8" id="patch_3"/><path d="M414.72 307.584V41.472" fill="none" stroke="#000" stroke-linecap="square" stroke-width=".8" id="patch_4"/><path d="M57.6 307.584h357.12" fill="none" stroke="#000" stroke-linecap="square" stroke-width=".8" id="patch_5"/><path d="M57.6 41.472h357.12" fill="none" stroke="#000" stroke-linecap="square" stroke-width=".8" id="patch_6"/><g id="text_16" font-family="DejaVu Sans" font-size="12" font-weight="400"><text transform="translate(74.565 22.035)">Simulated Mean for arcsin(x)+sqrt(1-x*x)-1 Algorithm</text><text transform="translate(132.61 35.472)">(Wasserstein Distances in Legend)</text></g><g id="legend_1"><path d="M64.6 78.828h178.25q2 0 2-2V48.472q0-2-2-2H64.6q-2 0-2 2v28.356q0 2 2 2z" fill="#fff" opacity=".8" stroke="#ccc" id="patch_7"/><path d="M66.6 54.57h20" fill="none" stroke="#1f77b4" stroke-linecap="square" stroke-width="1.5" id="line2d_16"/><text x="94.6" y="58.07" font-family="DejaVu Sans" font-size="10" font-weight="400" id="text_17">arcsin(x)+sqrt(1-x*x)-1</text><path d="M66.6 69.249h20" fill="none" stroke="#ff7f0e" stroke-linecap="square" stroke-width="1.5" id="line2d_18"/><text x="94.6" y="72.749" font-family="DejaVu Sans" font-size="10" font-weight="400" id="text_18">Simul. Mean (WD=0.008228)</text></g></g></g><defs><clipPath id="pa5c18e5d45"><path d="M57.6 41.472h357.12v266.112H57.6z"/></clipPath></defs></svg>
